!!!XEN: War song
!!!AGN: War song
!!!COM: Anonymous
!!!CNT: Native American -- Ojibway
!!!TXO: Ojibway
!!!MLC: Lac du Flambeau reservation, northern Wisconsin, U.S.A.
!!!MRD: 1909-1912///
!!!MPN: E'niwub'e ("Sits farther along")
**kern
*MM112
*Imale
*k[b-e-]
*clefF4
*M2/4
=1
4d
8d
8d
=2
2d
=3
8c
8c
4c
=4
4d
8B-
8B-
=5
2B-
=6
8G
8B-
4B-
=7
4d
8B-
8B-
=8
2B-
=9
8B-
8G
8G
8F
=10
4G
8G
8G
=11
2G
=12
8F
8F
4F
=13
4G
8D
8D
=14
2D
=15
8C
8C
4C
=16
4D
8BB-
8BB-
=17
2BB-
=18
8GG
8GG
4GG
=19
4BB-
8GG
8GG
=20
2BB-
=21
8GG
8GG
4GG
=22
4.GG
8GG
=23
[2GG
=24
2GG]
==
*-
!!!OCL: Frances Densmore
!!!YOR: Chippewa [i.e., Ojibway] Music--II, Bulletin 53 of the Bureau of American Ethnology, Smitsonian Institution
!!!ONM: 89
!!!PPG: 192
!!!PUB: published
!!!PPR: Government Printing Office
!!!PPP: Washington, D.C.
!!!PDT: 1912///
!!!EST: missing clef changes, text, drum tempo, and drum part
!!!YEC: Copyright 1998 Paul von Hippel
!!!YEM: Rights to all derivate electronic formats reserved.
!!!EFL: 29/42
